media/service-05.svg

<svg width="100" height="100" viewBox="0 0 100 100" fill="none" xmlns="http://www.w3.org/2000/svg">
<circle cx="50" cy="50" r="50" fill="#0F75BC" fill-opacity="0.12"/>
<g clip-path="url(#clip0)">
<path d="M70.0115 60.6969C69.7263 60.5786 69.398 60.6439 69.1797 60.8622L60.8388 69.2031C60.6205 69.4215 60.5552 69.7497 60.6734 70.0349C60.7914 70.3202 61.0699 70.5061 61.3786 70.5061H69.7195C70.1411 70.5061 70.4827 70.1644 70.4827 69.7428V61.4019C70.4826 61.0933 70.2967 60.815 70.0115 60.6969ZM63.2209 68.9797L68.956 63.2446V68.9797H63.2209Z" fill="#0F75BC"/>
<path d="M75.529 48.4631C75.2438 48.3449 74.9155 48.4102 74.6972 48.6284L72.4113 50.9143V35.372C72.4113 34.9505 72.0695 34.6088 71.648 34.6088H65.7837L67.9125 32.4801C67.9128 32.4797 67.9131 32.4793 67.9134 32.479L69.9645 30.4279C70.404 29.9884 70.646 29.4038 70.646 28.7823C70.646 28.1607 70.404 27.5763 69.9645 27.1366L67.5926 24.7647C67.1532 24.3253 66.5686 24.0833 65.947 24.0833C65.3255 24.0833 64.741 24.3253 64.3014 24.7647L62.2492 26.8169L59.7695 29.2967L54.4574 34.6087H30.7661V27.058C30.7661 26.6364 30.4243 26.2948 30.0029 26.2948C26.6929 26.295 24 28.9877 24 32.2978V64.7152C24 64.7716 24.0065 64.8264 24.0181 64.8793C24.1235 66.2838 24.7311 67.5888 25.7467 68.5794C26.8322 69.6381 28.2651 70.2212 29.7817 70.2212H53.1043L48.7118 74.6136C48.4936 74.832 48.4283 75.1601 48.5464 75.4454C48.6645 75.7306 48.9429 75.9166 49.2515 75.9166H75.2369C75.6583 75.9166 76.0001 75.5749 76.0001 75.1533V49.1682C76.0001 48.8596 75.814 48.5812 75.529 48.4631ZM65.381 25.8442C65.693 25.532 66.2013 25.532 66.5133 25.8442L68.8853 28.2162C69.1975 28.5283 69.1975 29.0365 68.8853 29.3487L67.373 30.8611L63.8684 27.3567L65.381 25.8442ZM62.789 28.4361L66.2935 31.9404L64.893 33.3409L61.3888 29.8366L62.789 28.4361ZM74.4738 57.7444H73.0657C72.6441 57.7444 72.3024 58.086 72.3024 58.5076C72.3024 58.9292 72.6441 59.2709 73.0657 59.2709H74.4738V61.5709H73.0657C72.6441 61.5709 72.3024 61.9125 72.3024 62.3341C72.3024 62.7557 72.6441 63.0973 73.0657 63.0973H74.4738V65.3972H73.0657C72.6441 65.3972 72.3024 65.7389 72.3024 66.1605C72.3024 66.5821 72.6441 66.9237 73.0657 66.9237H74.4738V69.2237H73.0657C72.6441 69.2237 72.3024 69.5655 72.3024 69.987C72.3024 70.4085 72.6441 70.7502 73.0657 70.7502H74.4738V74.3904H51.0941L58.8035 66.6811C59.1016 66.3829 59.1016 65.8998 58.8035 65.6017C58.7693 65.5675 58.7325 65.5378 58.694 65.5114C58.3969 65.3079 57.988 65.3378 57.724 65.6017L54.6308 68.6949H29.7818C27.4669 68.6949 25.6035 66.8877 25.5301 64.577C25.5345 64.432 25.5458 64.2882 25.5639 64.146C25.564 64.1452 25.5641 64.1444 25.5642 64.1435C25.5727 64.076 25.583 64.0088 25.5946 63.9419C25.596 63.9343 25.5974 63.9267 25.5987 63.9191C25.6094 63.8595 25.6213 63.8002 25.6344 63.741C25.6381 63.7246 25.642 63.7081 25.6458 63.6918C25.6574 63.6418 25.6699 63.5922 25.6833 63.5427C25.6906 63.5159 25.6982 63.4894 25.7061 63.4627C25.7172 63.4239 25.7288 63.3852 25.7411 63.3469C25.7534 63.3086 25.7665 63.2707 25.7798 63.2328C25.789 63.2063 25.7982 63.1798 25.8081 63.1535C25.8267 63.1035 25.8464 63.0541 25.8667 63.005C25.8725 62.9909 25.8782 62.9766 25.8842 62.9625C25.9103 62.9015 25.9374 62.8413 25.9661 62.7818C25.9673 62.7793 25.9684 62.7767 25.9696 62.7742C26.5666 61.5388 27.7148 60.6177 29.0927 60.3319C29.0965 60.3311 29.1004 60.3302 29.1042 60.3294C29.1674 60.3165 29.2312 60.3054 29.2954 60.2951C29.306 60.2934 29.3167 60.2913 29.3276 60.2896C29.3856 60.2808 29.4442 60.2739 29.5028 60.2673C29.5192 60.2655 29.5356 60.2629 29.5521 60.2613C29.6087 60.2556 29.6658 60.2519 29.7229 60.2483C29.7409 60.2472 29.759 60.2453 29.7771 60.2443C29.8518 60.2406 29.9272 60.2387 30.0029 60.2387C30.4243 60.2387 30.7661 59.897 30.7661 59.4754V53.9414C30.7661 53.5198 30.4243 53.1781 30.0029 53.1781C29.5814 53.1781 29.2396 53.5198 29.2396 53.9414V58.7602C27.9508 58.9232 26.7545 59.4981 25.8112 60.4192C25.7119 60.5161 25.6179 60.6169 25.5263 60.7193V32.2978C25.5263 30.0898 27.1336 28.2498 29.2395 27.8864V35.372V50.8885V50.8886C29.2395 51.3101 29.5813 51.6518 30.0028 51.6518C30.4242 51.6518 30.766 51.3101 30.766 50.8886V50.8885V36.1353H52.9311L48.7117 40.3546C48.4136 40.6528 48.4136 41.1359 48.7117 41.434C49.0098 41.732 49.4931 41.732 49.791 41.434L55.3133 35.9118C55.3135 35.9115 55.3136 35.9113 55.3138 35.9112L60.3092 30.9159L63.8134 34.4203L63.4023 34.8314C63.402 34.8317 63.4016 34.832 63.4013 34.8323L48.0117 50.2221L44.5073 46.7178L47.5408 43.6843C47.8389 43.3862 47.8389 42.903 47.5408 42.6049C47.2427 42.307 46.7595 42.307 46.4615 42.6049L42.8882 46.1781C42.8691 46.1972 42.8513 46.2174 42.8345 46.2381C42.8289 46.245 42.8239 46.2525 42.8187 46.2597C42.8079 46.274 42.7973 46.2884 42.7875 46.3034C42.7819 46.3122 42.7768 46.3211 42.7715 46.3302C42.7631 46.3444 42.755 46.3588 42.7476 46.3735C42.7427 46.3831 42.7383 46.3927 42.7339 46.4027C42.727 46.4176 42.7207 46.4328 42.715 46.4481C42.7129 46.4535 42.7103 46.4585 42.7084 46.4639L41.2214 50.6762L40.2076 53.5483C40.1942 53.5865 40.1845 53.6253 40.1773 53.6644H37.6391C37.2176 53.6644 36.8758 54.0061 36.8758 54.4276C36.8758 54.8492 37.2176 55.1909 37.6391 55.1909H58.7757C59.1973 55.1909 59.5389 54.8492 59.5389 54.4276C59.5389 54.0061 59.1973 53.6644 58.7757 53.6644H43.611L48.2657 52.0213C48.2695 52.0199 48.2732 52.018 48.277 52.0166C48.2951 52.0098 48.3129 52.0023 48.3305 51.9943C48.3375 51.9911 48.3445 51.988 48.3513 51.9847C48.3696 51.9755 48.3875 51.9655 48.4052 51.9547C48.4109 51.9512 48.4168 51.9481 48.4224 51.9445C48.4408 51.9328 48.4586 51.9199 48.4762 51.9063C48.4806 51.9029 48.4851 51.9 48.4894 51.8965C48.5106 51.8794 48.5315 51.8611 48.5512 51.8414L64.2572 36.1354H70.8847V52.4409L59.9671 63.3586C59.669 63.6567 59.669 64.1399 59.9671 64.438C59.9857 64.4566 60.0051 64.474 60.0251 64.4904C60.1651 64.6044 60.336 64.6615 60.5068 64.6615C60.6776 64.6615 60.8487 64.6044 60.9885 64.4904C61.0085 64.4741 61.0279 64.4566 61.0465 64.438C61.0468 64.4377 61.0465 64.438 61.0468 64.4377L74.4738 51.0106V57.7444ZM46.6157 50.9848L44.4294 51.7565L42.9728 50.2999L43.7446 48.1137L46.6157 50.9848Z" fill="#0F75BC"/>
</g>
<defs>
<clipPath id="clip0">
<rect width="52" height="52" fill="white" transform="translate(24 24)"/>
</clipPath>
</defs>
</svg>

<svg xmlns="http://www.w3.org/2000/svg" xmlns:xlink="http://www.w3.org/1999/xlink" width="100" height="100" viewBox="0 0 100 100"><defs><clipPath id="a"><rect width="52" height="52" transform="translate(24 24)" fill="#fff"/></clipPath></defs><g transform="translate(-1045 -352)"><circle cx="50" cy="50" r="50" transform="translate(1045 352)" fill="#ecf6fd"/><g transform="translate(1045 352)" clip-path="url(#a)"><path d="M70.011,60.7a.763.763,0,0,0-.832.165L60.839,69.2a.763.763,0,0,0,.54,1.3h8.341a.763.763,0,0,0,.763-.763V61.4A.763.763,0,0,0,70.011,60.7ZM63.221,68.98l5.735-5.735V68.98Z" fill="#0f75bc"/><path d="M75.529,48.463a.763.763,0,0,0-.832.165l-2.286,2.286V35.372a.763.763,0,0,0-.763-.763H65.784l2.129-2.129h0l2.051-2.051a2.328,2.328,0,0,0,0-3.291l-2.372-2.372a2.328,2.328,0,0,0-3.291,0l-2.052,2.052L59.77,29.3l-5.312,5.312H30.766V27.058A.763.763,0,0,0,30,26.295a6.01,6.01,0,0,0-6,6V64.715a.765.765,0,0,0,.018.164,5.781,5.781,0,0,0,5.764,5.342H53.1l-4.393,4.392a.763.763,0,0,0,.54,1.3H75.237A.763.763,0,0,0,76,75.153V49.168A.764.764,0,0,0,75.529,48.463ZM65.381,25.844a.8.8,0,0,1,1.132,0l2.372,2.372a.8.8,0,0,1,0,1.132l-1.512,1.512-3.5-3.5Zm-2.592,2.592,3.5,3.5-1.4,1.4-3.5-3.5ZM74.474,57.744H73.066a.763.763,0,1,0,0,1.527h1.408v2.3H73.066a.763.763,0,1,0,0,1.526h1.408v2.3H73.066a.763.763,0,1,0,0,1.526h1.408v2.3H73.066a.763.763,0,1,0,0,1.526h1.408v3.64H51.094L58.8,66.681a.763.763,0,0,0-1.08-1.079l-3.093,3.093H29.782a4.231,4.231,0,0,1-4.252-4.118q.007-.218.034-.431v0c.009-.068.019-.135.03-.2l0-.023q.016-.089.036-.178l.011-.049q.017-.075.038-.149c.007-.027.015-.053.023-.08s.023-.077.035-.116.025-.076.039-.114.018-.053.028-.079c.019-.05.038-.1.059-.148l.017-.042c.026-.061.053-.121.082-.181l0-.008a4.493,4.493,0,0,1,3.123-2.442l.012,0c.063-.013.127-.024.191-.034l.032-.006c.058-.009.117-.016.175-.022l.049-.006c.057-.006.114-.009.171-.013l.054,0c.075,0,.15-.006.226-.006a.763.763,0,0,0,.763-.763V53.941a.763.763,0,1,0-1.527,0V58.76a5.962,5.962,0,0,0-3.428,1.659c-.1.1-.193.2-.285.3V32.3a4.484,4.484,0,0,1,3.713-4.411v23h0a.763.763,0,0,0,1.527,0h0V36.135H52.931l-4.219,4.219a.763.763,0,0,0,1.079,1.079l5.522-5.522h0l5-5,3.5,3.5-.411.411h0l-15.39,15.39-3.5-3.5,3.033-3.034A.763.763,0,0,0,46.461,42.6l-3.573,3.573a.778.778,0,0,0-.054.06l-.016.022c-.011.014-.021.029-.031.044l-.016.027c-.008.014-.016.029-.024.043l-.014.029c-.007.015-.013.03-.019.045l-.007.016-1.487,4.212-1.014,2.872a.772.772,0,0,0-.03.116H37.639a.763.763,0,1,0,0,1.527H58.776a.763.763,0,0,0,0-1.527H43.611l4.655-1.643.011,0,.054-.022.021-.01.054-.03.017-.01c.018-.012.036-.025.054-.038l.013-.01a.778.778,0,0,0,.062-.055L64.257,36.135h6.627V52.441L59.967,63.359a.763.763,0,0,0,0,1.079c.019.019.038.036.058.052a.764.764,0,0,0,.963,0,.773.773,0,0,0,.058-.052h0L74.474,51.011Zm-27.858-6.76-2.186.772L42.973,50.3l.772-2.186Z" fill="#0f75bc"/></g></g></svg>
